;FLAVOR:Marlin
;TIME:2351
;Filament used: 1.76266m
;Layer height: 0.16
;MINX:113.198
;MINY:112.832
;MINZ:0.2
;MAXX:186.799
;MAXY:187.146
;MAXZ:5.08
;TARGET_MACHINE.NAME:Creality Ender-3 S1 Plus
;Generated with Cura_SteamEngine 5.7.2
M104 S200
M105
M109 S200
M82 ;absolute extrusion mode
; Ender 3 S1 Plus Start G-code
; M413 S0 ; Disable power loss recovery
G92 E0 ; Reset Extruder

; Prep surfaces before auto home for better accuracy
M140 S60
M104 S200

G28 ; Home all axes
G1 Z10.0 F3000 ; Move Z Axis up little to prevent scratching of Heat Bed
G1 X0 Y0

M190 S60
M109 S200

G1 X0.1 Y20 Z0.3 F5000.0 ; Move to start position
G1 X0.1 Y200.0 Z0.3 F1500.0 E15 ; Draw the first line
G1 X0.4 Y200.0 Z0.3 F5000.0 ; Move to side a little
G1 X0.4 Y20 Z0.3 F1500.0 E30 ; Draw the second line
G92 E0 ; Reset Extruder
G1 Z2.0 F3000 ; Move Z Axis up little to prevent scratching of Heat Bed
G1 X5 Y20 Z0.3 F5000.0 ; Move over to prevent blob squish

G92 E0
G92 E0
G1 F2400 E-0.8
;LAYER_COUNT:26
;LAYER:0
M107
M204 S2000
G1 F300 Z0.4
G0 F7500 X122.06 Y133.394 Z0.4
M204 S500
;TYPE:SKIRT
G1 F300 Z0.2
G1 F2400 E0
G1 F1500 X122.836 Y132.781 E0.03289
G1 X124.017 Y132.036 E0.07933
G1 X124.956 Y131.526 E0.11487
G1 X127.257 Y130.233 E0.20266
G1 X129.385 Y128.957 E0.28519
G1 X131.522 Y127.591 E0.36954
G1 X133.613 Y126.172 E0.45359
G1 X135.613 Y124.728 E0.53564
G1 X137.643 Y123.175 E0.62065
G1 X139.593 Y121.593 E0.70417
G1 X141.49 Y119.963 E0.78735
G1 X143.146 Y118.451 E0.86194
G1 X144.321 Y117.424 E0.91384
G1 X144.921 Y116.929 E0.93971
G1 X145.739 Y116.306 E0.97391
G1 X146.158 Y116.009 E0.99099
G1 X146.806 Y115.581 E1.01682
G1 X147.323 Y115.261 E1.03705
G1 X148.087 Y114.823 E1.06634
G1 X148.607 Y114.55 E1.08587
G1 X148.955 Y114.382 E1.09872
G1 X149.598 Y114.094 E1.12216
G1 X149.972 Y113.942 E1.13558
G1 X150.832 Y113.633 E1.16598
G1 X151.431 Y113.446 E1.18685
G1 X152.709 Y113.131 E1.23063
G1 X153.248 Y113.032 E1.24886
G1 X154.482 Y112.88 E1.29021
G1 X154.995 Y112.847 E1.30731
G1 X156.071 Y112.832 E1.3431
G1 X156.524 Y112.849 E1.35817
G1 X157.508 Y112.931 E1.39102
G1 X157.896 Y112.983 E1.40404
G1 X158.81 Y113.143 E1.4349
G1 X159.364 Y113.265 E1.45377
G1 X160.539 Y113.593 E1.49434
G1 X161.042 Y113.764 E1.51201
G1 X161.985 Y114.134 E1.5457
G1 X162.385 Y114.314 E1.56029
G1 X163.137 Y114.687 E1.58821
G1 X163.482 Y114.874 E1.60126
G1 X164.078 Y115.226 E1.62429
G1 X164.446 Y115.46 E1.63879
G1 X165.21 Y115.993 E1.66977
G1 X165.71 Y116.399 E1.6912
G1 X166.166 Y116.793 E1.71124
G1 X167.105 Y117.713 E1.75496
G1 X167.359 Y117.995 E1.76759
G1 X168.046 Y118.844 E1.80391
G1 X168.305 Y119.202 E1.81861
G1 X168.843 Y120.016 E1.85106
G1 X169.295 Y120.854 E1.88273
G1 X169.63 Y121.55 E1.90842
G1 X169.985 Y122.38 E1.93844
G1 X170.212 Y123.04 E1.96166
G1 X170.463 Y123.853 E1.98996
G1 X170.652 Y124.552 E2.01404
G1 X170.837 Y125.371 E2.04197
G1 X171.441 Y128.43 E2.14567
G1 X171.999 Y130.87 E2.22892
G1 X172.632 Y133.318 E2.31302
G1 X173.33 Y135.729 E2.39651
G1 X174.095 Y138.122 E2.48007
G1 X174.939 Y140.525 E2.56478
G1 X175.825 Y142.833 E2.647
G1 X176.809 Y145.191 E2.73198
G1 X177.855 Y147.516 E2.81678
G1 X178.925 Y149.724 E2.89839
G1 X180.099 Y151.982 E2.98303
G1 X181.311 Y154.162 E3.06599
G1 X182.608 Y156.344 E3.15042
G1 X183.981 Y158.513 E3.2358
G1 X184.974 Y160.026 E3.29599
G1 X185.47 Y160.865 E3.32841
G1 X185.861 Y161.679 E3.35844
G1 X186.228 Y162.656 E3.39316
G1 X186.48 Y163.568 E3.42463
G1 X186.699 Y164.881 E3.4689
G1 X186.747 Y165.364 E3.48504
G1 X186.799 Y166.337 E3.51745
G1 X186.764 Y167.31 E3.54984
G1 X186.651 Y168.235 E3.58083
G1 X186.529 Y168.857 E3.60191
G1 X186.45 Y169.206 E3.61381
G1 X186.184 Y170.16 E3.64675
G1 X185.688 Y171.412 E3.69154
G1 X185.346 Y172.125 E3.71785
G1 X184.92 Y172.952 E3.74879
G1 X181.09 Y180.242 E4.02268
G1 X180.648 Y181.033 E4.05282
G1 X180.302 Y181.601 E4.07494
G1 X180.039 Y182.002 E4.09089
G1 X179.468 Y182.792 E4.12331
G1 X178.854 Y183.502 E4.15453
G1 X178.128 Y184.204 E4.18812
G1 X177.427 Y184.773 E4.21815
G1 X176.476 Y185.415 E4.25631
G1 X175.527 Y185.937 E4.29233
G1 X174.701 Y186.303 E4.32238
G1 X173.531 Y186.695 E4.36342
G1 X172.468 Y186.943 E4.39973
G1 X171.356 Y187.092 E4.43704
G1 X170.395 Y187.146 E4.46906
G1 X169.604 Y187.142 E4.49537
G1 X168.709 Y187.099 E4.52517
G1 X167.408 Y186.998 E4.56857
G1 X165.436 Y186.814 E4.63444
G1 X163.427 Y186.596 E4.70166
G1 X161.608 Y186.366 E4.76264
G1 X160.365 Y186.187 E4.80441
G1 X159.118 Y185.991 E4.84639
G1 X157.558 Y185.714 E4.89909
G1 X155.967 Y185.395 E4.95306
G1 X154.561 Y185.079 E5.00099
G1 X152.953 Y184.676 E5.05613
G1 X151.461 Y184.263 E5.10762
G1 X149.914 Y183.794 E5.16138
G1 X148.424 Y183.3 E5.21359
G1 X146.904 Y182.754 E5.26731
G1 X145.362 Y182.157 E5.32231
G1 X143.92 Y181.556 E5.37427
G1 X142.505 Y180.926 E5.42578
G1 X141.385 Y180.398 E5.46697
G1 X139.683 Y179.544 E5.5303
G1 X138.53 Y178.929 E5.57377
G1 X136.893 Y178.004 E5.6363
G1 X135.651 Y177.259 E5.68447
G1 X134.281 Y176.391 E5.73842
G1 X132.902 Y175.467 E5.79363
G1 X131.805 Y174.694 E5.83826
G1 X130.372 Y173.633 E5.89756
G1 X129.125 Y172.658 E5.95021
G1 X128.044 Y171.771 E5.99672
G1 X126.651 Y170.569 E6.05792
G1 X125.581 Y169.598 E6.10597
G1 X124.377 Y168.45 E6.16131
G1 X123.238 Y167.309 E6.21493
G1 X122.387 Y166.419 E6.25588
G1 X121.395 Y165.348 E6.30444
G1 X120.196 Y164.006 E6.36429
G1 X119.446 Y163.139 E6.40242
G1 X118.091 Y161.529 E6.47241
G1 X116.759 Y159.896 E6.5425
G1 X115.933 Y158.843 E6.58701
G1 X115.49 Y158.232 E6.61212
G1 X115.085 Y157.628 E6.6363
G1 X114.578 Y156.796 E6.66871
G1 X114.148 Y155.922 E6.70111
G1 X113.798 Y155.013 E6.7335
G1 X113.528 Y154.075 E6.76597
G1 X113.32 Y153.003 E6.80229
G1 X113.205 Y151.836 E6.84129
G1 X113.198 Y150.865 E6.87359
G1 X113.273 Y149.897 E6.90588
G1 X113.42 Y148.935 E6.93825
G1 X113.65 Y147.986 E6.97072
G1 X113.982 Y147.017 E7.00479
G1 X114.125 Y146.657 E7.01768
G1 X114.486 Y145.845 E7.04723
G1 X114.828 Y145.163 E7.07261
G1 X115.211 Y144.44 E7.09982
G1 X119.101 Y137.254 E7.3716
G1 X119.508 Y136.546 E7.39876
G1 X119.847 Y136.002 E7.42008
G1 X120.13 Y135.578 E7.43704
G1 X120.707 Y134.794 E7.46941
G1 X121.328 Y134.089 E7.50066
G1 X122.06 Y133.394 E7.53423
M204 S2000
G0 F7500 X122.309 Y133.707
M204 S500
G1 F1500 X123.05 Y133.119 E7.5657
G1 X124.208 Y132.388 E7.61124
G1 X125.147 Y131.878 E7.64678
G1 X127.453 Y130.582 E7.73476
G1 X129.591 Y129.3 E7.81768
G1 X131.747 Y127.922 E7.90278
G1 X133.838 Y126.503 E7.98683
G1 X135.856 Y125.046 E8.06962
G1 X137.886 Y123.493 E8.15463
G1 X139.845 Y121.904 E8.23852
G1 X141.751 Y120.266 E8.32211
G1 X143.409 Y118.752 E8.39679
G1 X144.576 Y117.732 E8.44834
G1 X145.163 Y117.247 E8.47366
G1 X145.971 Y116.632 E8.50744
G1 X146.378 Y116.343 E8.52404
G1 X147.017 Y115.921 E8.54951
G1 X147.522 Y115.608 E8.56927
G1 X148.273 Y115.177 E8.59807
G1 X148.782 Y114.91 E8.61719
G1 X149.118 Y114.747 E8.62961
G1 X149.749 Y114.465 E8.6526
G1 X150.123 Y114.313 E8.66602
G1 X150.951 Y114.015 E8.69529
G1 X151.55 Y113.828 E8.71616
G1 X152.781 Y113.524 E8.75834
G1 X153.297 Y113.429 E8.77579
G1 X154.508 Y113.279 E8.81637
G1 X155.001 Y113.247 E8.8328
G1 X156.056 Y113.232 E8.8679
G1 X156.491 Y113.248 E8.88238
G1 X157.456 Y113.328 E8.91458
G1 X157.827 Y113.377 E8.92703
G1 X158.724 Y113.534 E8.95732
G1 X159.278 Y113.656 E8.97618
G1 X160.41 Y113.972 E9.01527
G1 X160.913 Y114.143 E9.03294
G1 X161.821 Y114.499 E9.06538
G1 X162.207 Y114.672 E9.07945
G1 X162.946 Y115.038 E9.10688
G1 X163.279 Y115.219 E9.11949
G1 X163.864 Y115.564 E9.14207
G1 X164.217 Y115.788 E9.15598
G1 X164.958 Y116.304 E9.18601
G1 X165.449 Y116.702 E9.20703
G1 X165.886 Y117.079 E9.22623
G1 X166.825 Y117.999 E9.26995
G1 X167.048 Y118.247 E9.28105
G1 X167.722 Y119.079 E9.31666
G1 X167.972 Y119.423 E9.3308
G1 X168.491 Y120.206 E9.36205
G1 X168.943 Y121.044 E9.39372
G1 X169.262 Y121.707 E9.41819
G1 X169.617 Y122.537 E9.44821
G1 X169.83 Y123.158 E9.47005
G1 X170.077 Y123.958 E9.49789
G1 X170.262 Y124.64 E9.5214
G1 X170.445 Y125.448 E9.54895
G1 X171.051 Y128.519 E9.65306
G1 X171.612 Y130.97 E9.73669
G1 X172.248 Y133.429 E9.82117
G1 X172.949 Y135.851 E9.90503
G1 X173.718 Y138.255 E9.98898
G1 X174.566 Y140.668 E10.07405
G1 X175.456 Y142.987 E10.15667
G1 X176.444 Y145.355 E10.24201
G1 X177.49 Y147.68 E10.3268
G1 X178.57 Y149.909 E10.40918
G1 X179.749 Y152.176 E10.49417
G1 X180.967 Y154.366 E10.57752
G1 X182.27 Y156.558 E10.66233
G1 X183.647 Y158.733 E10.74795
G1 X184.63 Y160.23 E10.80752
G1 X185.109 Y161.038 E10.83876
G1 X185.5 Y161.852 E10.86879
G1 X185.842 Y162.763 E10.90116
G1 X186.094 Y163.675 E10.93263
G1 X186.304 Y164.946 E10.97548
G1 X186.348 Y165.386 E10.99018
G1 X186.399 Y166.323 E11.02139
G1 X186.367 Y167.261 E11.05261
G1 X186.254 Y168.186 E11.0836
G1 X186.139 Y168.769 E11.10337
G1 X186.064 Y169.1 E11.11466
G1 X185.812 Y170.013 E11.14616
G1 X185.316 Y171.265 E11.19095
G1 X184.99 Y171.942 E11.21594
G1 X184.566 Y172.766 E11.24676
G1 X180.741 Y180.047 E11.52031
G1 X180.306 Y180.825 E11.54996
G1 X179.967 Y181.382 E11.57165
G1 X179.714 Y181.768 E11.587
G1 X179.165 Y182.53 E11.61823
G1 X178.551 Y183.24 E11.64945
G1 X177.876 Y183.893 E11.68069
G1 X177.175 Y184.462 E11.71072
G1 X176.283 Y185.065 E11.74653
G1 X175.365 Y185.571 E11.7814
G1 X174.539 Y185.937 E11.81144
G1 X173.44 Y186.306 E11.85
G1 X172.414 Y186.547 E11.88506
G1 X171.333 Y186.693 E11.92134
G1 X170.397 Y186.746 E11.95252
G1 X169.623 Y186.742 E11.97826
G1 X168.74 Y186.7 E12.00766
G1 X167.445 Y186.6 E12.05086
G1 X165.479 Y186.416 E12.11654
G1 X163.477 Y186.199 E12.18352
G1 X161.665 Y185.97 E12.24426
G1 X160.427 Y185.792 E12.28586
G1 X159.188 Y185.597 E12.32758
G1 X157.637 Y185.322 E12.37997
G1 X156.055 Y185.005 E12.43363
G1 X154.658 Y184.691 E12.48126
G1 X153.06 Y184.291 E12.53605
G1 X151.577 Y183.88 E12.58723
G1 X150.04 Y183.414 E12.64065
G1 X148.559 Y182.923 E12.69254
G1 X147.048 Y182.381 E12.74594
G1 X145.516 Y181.788 E12.80057
G1 X144.083 Y181.19 E12.85222
G1 X142.675 Y180.564 E12.90347
G1 X141.564 Y180.041 E12.94431
G1 X139.871 Y179.191 E13.00732
G1 X138.727 Y178.581 E13.05044
G1 X137.099 Y177.661 E13.11264
G1 X135.865 Y176.921 E13.16049
G1 X134.504 Y176.059 E13.21408
G1 X133.132 Y175.14 E13.269
G1 X132.043 Y174.373 E13.3133
G1 X130.618 Y173.318 E13.37227
G1 X129.379 Y172.349 E13.42459
G1 X128.305 Y171.468 E13.47079
G1 X126.92 Y170.273 E13.53163
G1 X125.857 Y169.308 E13.57938
G1 X124.66 Y168.167 E13.63439
G1 X123.527 Y167.032 E13.68773
G1 X122.68 Y166.147 E13.72847
G1 X121.693 Y165.082 E13.77676
G1 X120.498 Y163.744 E13.83643
G1 X119.752 Y162.882 E13.87435
G1 X118.401 Y161.276 E13.94415
G1 X117.074 Y159.649 E14.01398
G1 X116.257 Y158.608 E14.05799
G1 X115.822 Y158.009 E14.08262
G1 X115.426 Y157.42 E14.10622
G1 X114.937 Y156.619 E14.13744
G1 X114.521 Y155.777 E14.16867
G1 X114.182 Y154.902 E14.19988
G1 X113.921 Y153.999 E14.23115
G1 X113.713 Y152.927 E14.26747
G1 X113.605 Y151.833 E14.30403
G1 X113.597 Y150.896 E14.3352
G1 X113.669 Y149.957 E14.36652
G1 X113.809 Y149.029 E14.39773
G1 X114.029 Y148.115 E14.429
G1 X114.354 Y147.164 E14.46243
G1 X114.49 Y146.82 E14.47473
G1 X114.844 Y146.024 E14.50371
G1 X115.182 Y145.35 E14.52878
G1 X115.563 Y144.63 E14.55588
G1 X119.448 Y137.453 E14.82731
G1 X119.848 Y136.757 E14.85401
G1 X120.18 Y136.224 E14.8749
G1 X120.453 Y135.815 E14.89126
G1 X121.008 Y135.058 E14.92248
G1 X121.604 Y134.379 E14.95252
G1 X122.309 Y133.707 E14.98492
M204 S2000
G0 F7500 X122.558 Y134.02
M204 S500
G1 F1500 X123.264 Y133.457 E15.01495
G1 X124.399 Y132.74 E15.0596
G1 X125.338 Y132.23 E15.09515
G1 X127.649 Y130.931 E15.18332
G1 X129.797 Y129.643 E15.26662
G1 X131.972 Y128.253 E15.35247
G1 X134.063 Y126.834 E15.43652
G1 X136.099 Y125.364 E15.52005
G1 X138.129 Y123.811 E15.60506
G1 X140.097 Y122.215 E15.68933
G1 X142.012 Y120.569 E15.77332
G1 X143.672 Y119.053 E15.84809
G1 X144.831 Y118.04 E15.89929
G1 X145.405 Y117.565 E15.92407
G1 X146.202 Y116.958 E15.95739
G1 X146.598 Y116.677 E15.97354
G1 X147.228 Y116.261 E15.99865
G1 X147.721 Y115.955 E16.01795
G1 X148.458 Y115.531 E16.04623
G1 X148.957 Y115.27 E16.06496
G1 X149.281 Y115.112 E16.07695
G1 X149.9 Y114.835 E16.0995
G1 X150.258 Y114.689 E16.11236
G1 X151.07 Y114.397 E16.14106
G1 X151.669 Y114.21 E16.16193
G1 X152.854 Y113.917 E16.20253
G1 X153.346 Y113.826 E16.21918
G1 X154.534 Y113.678 E16.25899
G1 X155.007 Y113.647 E16.27476
G1 X156.042 Y113.632 E16.30919
G1 X156.458 Y113.647 E16.32303
G1 X157.404 Y113.725 E16.3546
G1 X157.758 Y113.771 E16.36648
G1 X158.638 Y113.925 E16.39619
G1 X159.192 Y114.047 E16.41506
G1 X160.281 Y114.351 E16.45266
G1 X160.784 Y114.522 E16.47033
G1 X161.658 Y114.864 E16.50155
G1 X162.03 Y115.03 E16.5151
G1 X162.755 Y115.389 E16.54201
G1 X163.076 Y115.564 E16.55417
G1 X163.65 Y115.902 E16.57632
G1 X163.988 Y116.116 E16.58963
G1 X164.729 Y116.632 E16.61966
G1 X165.188 Y117.005 E16.63933
G1 X165.606 Y117.365 E16.65768
G1 X166.528 Y118.267 E16.70058
G1 X166.737 Y118.499 E16.71097
G1 X167.399 Y119.315 E16.74591
G1 X167.639 Y119.644 E16.75946
G1 X168.139 Y120.396 E16.78949
G1 X168.591 Y121.234 E16.82116
G1 X168.894 Y121.864 E16.84441
G1 X169.249 Y122.694 E16.87444
G1 X169.448 Y123.276 E16.8949
G1 X169.691 Y124.063 E16.92229
G1 X169.872 Y124.729 E16.94525
G1 X170.053 Y125.525 E16.9724
G1 X170.661 Y128.608 E17.07691
G1 X171.225 Y131.07 E17.16092
G1 X171.864 Y133.54 E17.24578
G1 X172.568 Y135.973 E17.33002
G1 X173.341 Y138.388 E17.41436
G1 X174.193 Y140.811 E17.49978
G1 X175.087 Y143.141 E17.58279
G1 X176.079 Y145.519 E17.66849
G1 X177.125 Y147.844 E17.75328
G1 X178.215 Y150.094 E17.83644
G1 X179.399 Y152.37 E17.92177
G1 X180.623 Y154.57 E18.0055
G1 X181.932 Y156.772 E18.0907
G1 X183.313 Y158.953 E18.17656
G1 X184.286 Y160.435 E18.23553
G1 X184.748 Y161.211 E18.26557
G1 X185.139 Y162.025 E18.2956
G1 X185.457 Y162.87 E18.32563
G1 X185.699 Y163.74 E18.35567
G1 X185.909 Y165.011 E18.39851
G1 X185.949 Y165.408 E18.41178
G1 X185.999 Y166.31 E18.44183
G1 X185.97 Y167.213 E18.47188
G1 X185.861 Y168.109 E18.5019
G1 X185.749 Y168.681 E18.52129
G1 X185.678 Y168.995 E18.53199
G1 X185.44 Y169.866 E18.56203
G1 X184.944 Y171.118 E18.60682
G1 X184.634 Y171.759 E18.6305
G1 X184.212 Y172.58 E18.6612
G1 X180.392 Y179.852 E18.93441
G1 X179.964 Y180.617 E18.96356
G1 X179.632 Y181.163 E18.98482
G1 X179.389 Y181.535 E18.9996
G1 X178.862 Y182.269 E19.02965
G1 X178.272 Y182.953 E19.05969
G1 X177.624 Y183.582 E19.08973
G1 X176.923 Y184.151 E19.11976
G1 X176.089 Y184.715 E19.15325
G1 X175.203 Y185.205 E19.18692
G1 X174.377 Y185.571 E19.21697
G1 X173.348 Y185.917 E19.25308
G1 X172.36 Y186.151 E19.28685
G1 X171.31 Y186.294 E19.32209
G1 X170.399 Y186.346 E19.35244
G1 X169.642 Y186.342 E19.37762
G1 X168.771 Y186.301 E19.40662
G1 X167.482 Y186.202 E19.44962
G1 X165.522 Y186.018 E19.5151
G1 X163.527 Y185.802 E19.58184
G1 X161.722 Y185.574 E19.64235
G1 X160.489 Y185.397 E19.68378
G1 X159.258 Y185.203 E19.72523
G1 X157.716 Y184.93 E19.77731
G1 X156.143 Y184.615 E19.83067
G1 X154.755 Y184.303 E19.87799
G1 X153.167 Y183.906 E19.93243
G1 X151.693 Y183.497 E19.98331
G1 X150.166 Y183.034 E20.03638
G1 X148.694 Y182.546 E20.08796
G1 X147.192 Y182.008 E20.14102
G1 X145.67 Y181.419 E20.1953
G1 X144.246 Y180.825 E20.24662
G1 X142.845 Y180.202 E20.29762
G1 X141.743 Y179.683 E20.33813
G1 X140.059 Y178.838 E20.4008
G1 X138.924 Y178.233 E20.44358
G1 X137.305 Y177.318 E20.50543
G1 X136.079 Y176.583 E20.55297
G1 X134.727 Y175.727 E20.6062
G1 X133.362 Y174.813 E20.66084
G1 X132.281 Y174.052 E20.70481
G1 X130.864 Y173.003 E20.76344
G1 X129.633 Y172.04 E20.81543
G1 X128.566 Y171.165 E20.86132
G1 X127.189 Y169.977 E20.92181
G1 X126.133 Y169.018 E20.96926
G1 X124.943 Y167.884 E21.02393
G1 X123.816 Y166.755 E21.07699
G1 X122.973 Y165.875 E21.11752
G1 X121.991 Y164.815 E21.16558
G1 X120.8 Y163.482 E21.22503
G1 X120.058 Y162.625 E21.26274
G1 X118.711 Y161.023 E21.33235
G1 X117.389 Y159.402 E21.40192
G1 X116.581 Y158.373 E21.44544
G1 X116.154 Y157.785 E21.46961
G1 X115.767 Y157.211 E21.49263
G1 X115.295 Y156.441 E21.52267
G1 X114.894 Y155.632 E21.5527
G1 X114.566 Y154.79 E21.58276
G1 X114.314 Y153.923 E21.61279
G1 X114.106 Y152.851 E21.64911
G1 X114.005 Y151.829 E21.68326
G1 X113.996 Y150.926 E21.7133
