;FLAVOR:Marlin
;TIME:13925
;Filament used: 9.77334m
;Layer height: 0.16
;MINX:84.307
;MINY:79.305
;MINZ:0.2
;MAXX:215.69
;MAXY:220.702
;MAXZ:4.52
;TARGET_MACHINE.NAME:Creality Ender-3 S1 Plus
;Generated with Cura_SteamEngine 5.7.2
M104 S200
M105
M109 S200
M82 ;absolute extrusion mode
; Ender 3 S1 Plus Start G-code
; M413 S0 ; Disable power loss recovery
G92 E0 ; Reset Extruder

; Prep surfaces before auto home for better accuracy
M140 S60
M104 S200

G28 ; Home all axes
G1 Z10.0 F3000 ; Move Z Axis up little to prevent scratching of Heat Bed
G1 X0 Y0

M190 S60
M109 S200

G1 X0.1 Y20 Z0.3 F5000.0 ; Move to start position
G1 X0.1 Y200.0 Z0.3 F1500.0 E15 ; Draw the first line
G1 X0.4 Y200.0 Z0.3 F5000.0 ; Move to side a little
G1 X0.4 Y20 Z0.3 F1500.0 E30 ; Draw the second line
G92 E0 ; Reset Extruder
G1 Z2.0 F3000 ; Move Z Axis up little to prevent scratching of Heat Bed
G1 X5 Y20 Z0.3 F5000.0 ; Move over to prevent blob squish

G92 E0
G92 E0
G1 F2400 E-0.8
;LAYER_COUNT:29
;LAYER:0
M107
M204 S2000
G1 F300 Z0.4
G0 F7500 X103.034 Y103.443 Z0.4
M204 S500
;TYPE:SKIRT
G1 F300 Z0.2
G1 F2400 E0
G1 F1500 X104.006 Y102.471 E0.04572
G1 X105.266 Y101.268 E0.10366
G1 X106.356 Y100.277 E0.15266
G1 X107.738 Y99.084 E0.21338
G1 X109.058 Y98.003 E0.27013
G1 X109.929 Y97.323 E0.30688
G1 X111.416 Y96.211 E0.36864
G1 X112.86 Y95.193 E0.4274
G1 X114.293 Y94.238 E0.48468
G1 X115.46 Y93.502 E0.53057
G1 X117.035 Y92.559 E0.59162
G1 X118.432 Y91.771 E0.64497
G1 X119.807 Y91.04 E0.69676
G1 X121.002 Y90.437 E0.74128
G1 X122.532 Y89.709 E0.79764
G1 X124.211 Y88.964 E0.85873
G1 X125.46 Y88.447 E0.90369
G1 X127.075 Y87.82 E0.96131
G1 X128.523 Y87.302 E1.01246
G1 X130.205 Y86.747 E1.07137
G1 X131.795 Y86.266 E1.12662
G1 X133.304 Y85.852 E1.17867
G1 X134.945 Y85.444 E1.23491
G1 X136.476 Y85.101 E1.28709
G1 X138.045 Y84.79 E1.34029
G1 X139.265 Y84.573 E1.38151
G1 X141.82 Y84.082 E1.46804
G1 X144.236 Y83.549 E1.55033
G1 X146.703 Y82.927 E1.63495
G1 X149.143 Y82.241 E1.71925
G1 X151.479 Y81.511 E1.80065
G1 X153.524 Y80.793 E1.87274
G1 X153.788 Y80.713 E1.88192
G1 X154.917 Y80.324 E1.92163
G1 X155.648 Y80.102 E1.94704
G1 X156.38 Y79.909 E1.97222
G1 X156.95 Y79.774 E1.9917
G1 X157.69 Y79.633 E2.01676
G1 X158.441 Y79.514 E2.04205
G1 X159.138 Y79.427 E2.06541
G1 X159.814 Y79.374 E2.08796
G1 X160.797 Y79.32 E2.12071
G1 X161.431 Y79.305 E2.1418
G1 X162.163 Y79.309 E2.16615
G1 X163.381 Y79.361 E2.2067
G1 X163.85 Y79.397 E2.22234
G1 X164.806 Y79.489 E2.25428
G1 X165.28 Y79.545 E2.27016
G1 X166.105 Y79.663 E2.29788
G1 X166.647 Y79.754 E2.31616
G1 X168.476 Y80.118 E2.37818
G1 X169.645 Y80.394 E2.41813
G1 X170.087 Y80.509 E2.43332
G1 X171.271 Y80.844 E2.47425
G1 X172.921 Y81.374 E2.53189
G1 X173.325 Y81.514 E2.54611
G1 X175.108 Y82.183 E2.60945
G1 X176.274 Y82.675 E2.65154
G1 X177.543 Y83.258 E2.69799
G1 X177.944 Y83.452 E2.71281
G1 X179.209 Y84.098 E2.76005
G1 X179.617 Y84.319 E2.77548
G1 X181.028 Y85.125 E2.82953
G1 X181.512 Y85.42 E2.84838
G1 X183.063 Y86.417 E2.90971
G1 X183.437 Y86.669 E2.92471
G1 X184.864 Y87.678 E2.98284
G1 X185.907 Y88.464 E3.02627
G1 X187.304 Y89.603 E3.08623
G1 X187.669 Y89.917 E3.10224
G1 X189.038 Y91.158 E3.1637
G1 X189.591 Y91.696 E3.18936
G1 X190.141 Y92.25 E3.21532
G1 X190.972 Y93.131 E3.2556
G1 X191.577 Y93.813 E3.28593
G1 X192.075 Y94.401 E3.31155
G1 X192.77 Y95.262 E3.34836
G1 X193.251 Y95.893 E3.37475
G1 X194.02 Y96.964 E3.4186
G1 X194.322 Y97.41 E3.43651
G1 X195.416 Y99.128 E3.50426
G1 X197.261 Y102.236 E3.62447
G1 X198.619 Y104.39 E3.70916
G1 X200.002 Y106.453 E3.79177
G1 X202.119 Y109.388 E3.91213
G1 X202.714 Y110.187 E3.94527
G1 X203.554 Y111.356 E3.99314
G1 X204.356 Y112.518 E4.0401
G1 X205.197 Y113.796 E4.09099
G1 X205.984 Y115.056 E4.1404
G1 X206.84 Y116.504 E4.19635
G1 X207.593 Y117.847 E4.24756
G1 X208.141 Y118.874 E4.28627
G1 X209.069 Y120.722 E4.35505
G1 X209.733 Y122.135 E4.40698
G1 X210.364 Y123.563 E4.45891
G1 X210.991 Y125.084 E4.51362
G1 X211.424 Y126.203 E4.55353
G1 X212.118 Y128.131 E4.62168
G1 X212.599 Y129.592 E4.67284
G1 X212.99 Y130.867 E4.7172
G1 X213.477 Y132.605 E4.77723
G1 X213.831 Y134.009 E4.82539
G1 X214.182 Y135.56 E4.87828
G1 X214.493 Y137.12 E4.93119
G1 X214.698 Y138.291 E4.97073
G1 X214.942 Y139.875 E5.02403
G1 X215.12 Y141.199 E5.06847
G1 X215.339 Y143.179 E5.13472
G1 X215.448 Y144.307 E5.17242
G1 X215.642 Y146.697 E5.25217
G1 X215.685 Y147.457 E5.27749
G1 X215.69 Y148.36 E5.30752
G1 X215.646 Y149.039 E5.33015
G1 X215.596 Y149.546 E5.3471
G1 X215.455 Y150.51 E5.3795
G1 X215.231 Y151.458 E5.4119
G1 X214.922 Y152.381 E5.44427
G1 X214.534 Y153.275 E5.47669
G1 X214.069 Y154.13 E5.50906
G1 X213.548 Y154.914 E5.54037
G1 X212.796 Y155.839 E5.58002
G1 X210.474 Y158.396 E5.6949
G1 X208.845 Y160.304 E5.77834
G1 X207.279 Y162.244 E5.86126
G1 X205.761 Y164.239 E5.94464
G1 X204.275 Y166.311 E6.02945
G1 X202.894 Y168.356 E6.11152
G1 X201.54 Y170.49 E6.19558
G1 X200.247 Y172.66 E6.2796
G1 X199.022 Y174.854 E6.36317
G1 X197.841 Y177.119 E6.44813
G1 X196.752 Y179.359 E6.53097
G1 X195.71 Y181.665 E6.61514
G1 X194.751 Y183.958 E6.6978
G1 X193.826 Y186.363 E6.78351
G1 X192.997 Y188.71 E6.8663
G1 X192.231 Y191.097 E6.94967
G1 X191.526 Y193.523 E7.0337
G1 X190.879 Y196.013 E7.11927
G1 X190.486 Y197.638 E7.17488
G1 X190.214 Y198.573 E7.20726
G1 X189.862 Y199.476 E7.2395
G1 X189.463 Y200.296 E7.26983
G1 X188.957 Y201.187 E7.30391
G1 X188.402 Y201.986 E7.33627
G1 X187.826 Y202.681 E7.36629
G1 X186.744 Y203.736 E7.41655
G1 X185.9 Y204.399 E7.45225
G1 X185.494 Y204.676 E7.4686
G1 X184.786 Y205.129 E7.49655
G1 X184.061 Y205.556 E7.52454
G1 X182.236 Y206.568 E7.59394
G1 X180.333 Y207.584 E7.66569
G1 X179.138 Y208.195 E7.71033
G1 X178.051 Y208.727 E7.75059
G1 X176.85 Y209.286 E7.79465
G1 X175.519 Y209.872 E7.84302
G1 X174.351 Y210.357 E7.88508
G1 X172.606 Y211.029 E7.94727
G1 X171.143 Y211.547 E7.99889
G1 X170.06 Y211.904 E8.03682
G1 X165.882 Y213.189 E8.18221
G1 X163.485 Y214.003 E8.2664
G1 X161.164 Y214.864 E8.34874
G1 X158.803 Y215.816 E8.43341
G1 X156.486 Y216.829 E8.51752
G1 X154.234 Y217.89 E8.60031
G1 X152.688 Y218.66 E8.65776
G1 X151.695 Y219.124 E8.69421
G1 X150.752 Y219.509 E8.72809
G1 X150.189 Y219.707 E8.74794
G1 X149.232 Y219.993 E8.78116
G1 X148.52 Y220.171 E8.80557
G1 X147.68 Y220.345 E8.8341
G1 X147.219 Y220.42 E8.84964
G1 X146.672 Y220.495 E8.868
G1 X145.88 Y220.585 E8.89451
G1 X144.913 Y220.661 E8.92678
G1 X143.787 Y220.7 E8.96425
G1 X143.291 Y220.702 E8.98075
G1 X141.751 Y220.665 E9.03198
G1 X140.873 Y220.62 E9.06122
G1 X139.426 Y220.501 E9.10951
G1 X138.168 Y220.36 E9.15162
G1 X137.066 Y220.211 E9.1886
G1 X136.097 Y220.062 E9.22121
G1 X134.733 Y219.825 E9.26726
G1 X133.628 Y219.608 E9.30471
G1 X132.575 Y219.385 E9.34051
G1 X131.243 Y219.081 E9.38595
G1 X130.527 Y218.906 E9.41047
G1 X129.056 Y218.524 E9.46102
G1 X127.033 Y217.963 E9.53084
G1 X124.778 Y217.271 E9.60929
G1 X123.636 Y216.889 E9.64935
G1 X122.613 Y216.524 E9.68547
G1 X121.678 Y216.173 E9.71869
G1 X120.421 Y215.67 E9.76372
G1 X119.254 Y215.169 E9.80596
G1 X118.44 Y214.794 E9.83577
G1 X117.077 Y214.124 E9.88628
G1 X116.354 Y213.744 E9.91345
G1 X115.046 Y213.007 E9.96338
G1 X114.026 Y212.386 E10.0031
G1 X113.048 Y211.75 E10.0419
G1 X112.384 Y211.289 E10.06879
G1 X111.382 Y210.551 E10.11018
G1 X110.558 Y209.901 E10.14509
G1 X109.624 Y209.105 E10.1859
G1 X109.309 Y208.825 E10.19992
G1 X108.53 Y208.098 E10.23536
G1 X107.971 Y207.545 E10.26151
G1 X107.251 Y206.773 E10.29662
G1 X106.908 Y206.381 E10.31395
G1 X106.15 Y205.448 E10.35393
G1 X105.618 Y204.731 E10.38363
G1 X105.29 Y204.256 E10.40283
G1 X104.931 Y203.7 E10.42484
G1 X104.575 Y203.11 E10.44776
G1 X104.219 Y202.473 E10.47203
G1 X103.923 Y201.897 E10.49357
G1 X103.621 Y201.259 E10.51704
G1 X103.021 Y199.878 E10.56712
G1 X101.954 Y197.52 E10.65321
G1 X100.85 Y195.251 E10.73713
G1 X99.667 Y192.985 E10.82215
G1 X98.463 Y190.831 E10.90423
G1 X97.18 Y188.679 E10.98756
G1 X95.243 Y185.664 E11.10675
G1 X94.886 Y185.122 E11.12834
G1 X94.211 Y184.062 E11.17013
G1 X93.185 Y182.352 E11.23646
G1 X92.406 Y180.974 E11.28911
G1 X91.694 Y179.64 E11.3394
G1 X91.041 Y178.347 E11.38758
G1 X90.312 Y176.814 E11.44404
G1 X89.567 Y175.135 E11.50514
G1 X89.05 Y173.886 E11.5501
G1 X88.425 Y172.275 E11.60757
G1 X87.838 Y170.629 E11.66569
G1 X87.37 Y169.209 E11.71542
G1 X86.893 Y167.636 E11.77009
G1 X86.453 Y166.038 E11.82522
G1 X86.052 Y164.423 E11.88056
G1 X85.709 Y162.89 E11.93281
G1 X85.407 Y161.363 E11.98459
G1 X85.12 Y159.699 E12.04075
G1 X84.879 Y158.056 E12.09598
G1 X84.739 Y156.93 E12.13372
G1 X84.547 Y155.03 E12.19723
G1 X84.419 Y153.28 E12.25559
G1 X84.35 Y151.844 E12.30341
G1 X84.308 Y150.179 E12.35881
G1 X84.307 Y148.644 E12.40986
G1 X84.335 Y147.288 E12.45497
G1 X84.41 Y145.625 E12.51034
G1 X84.552 Y143.663 E12.57577
G1 X84.685 Y142.306 E12.62112
G1 X84.898 Y140.549 E12.67998
G1 X85.132 Y138.968 E12.73314
G1 X85.363 Y137.612 E12.77889
G1 X85.692 Y135.934 E12.83576
G1 X86.1 Y134.109 E12.89796
G1 X86.43 Y132.789 E12.94322
G1 X86.893 Y131.111 E13.00111
G1 X87.305 Y129.745 E13.04857
G1 X87.821 Y128.164 E13.10388
G1 X88.46 Y126.38 E13.16691
G1 X89.021 Y124.93 E13.21862
G1 X89.669 Y123.372 E13.27474
G1 X90.314 Y121.926 E13.3274
G1 X90.984 Y120.513 E13.37942
G1 X91.633 Y119.221 E13.42751
G1 X92.451 Y117.688 E13.4853
G1 X93.273 Y116.24 E13.54068
G1 X93.978 Y115.06 E13.5864
G1 X94.957 Y113.51 E13.64737
G1 X95.724 Y112.36 E13.69335
G1 X96.841 Y110.777 E13.75779
G1 X97.773 Y109.526 E13.80967
G1 X98.768 Y108.253 E13.86341
G1 X99.713 Y107.105 E13.91287
G1 X100.831 Y105.811 E13.96974
G1 X101.719 Y104.83 E14.01375
G1 X103.034 Y103.443 E14.07732
M204 S2000
G0 F7500 X103.317 Y103.726
M204 S500
G1 F1500 X104.282 Y102.76 E14.12274
G1 X105.535 Y101.564 E14.18035
G1 X106.617 Y100.58 E14.22899
G1 X107.991 Y99.393 E14.28938
G1 X109.304 Y98.318 E14.34582
G1 X110.168 Y97.643 E14.38229
G1 X111.647 Y96.538 E14.4437
G1 X113.082 Y95.526 E14.5021
G1 X114.506 Y94.576 E14.55903
G1 X115.665 Y93.845 E14.60461
G1 X117.232 Y92.907 E14.66535
G1 X118.62 Y92.124 E14.71836
G1 X119.987 Y91.397 E14.76985
G1 X121.174 Y90.798 E14.81408
G1 X122.694 Y90.075 E14.87006
G1 X124.364 Y89.334 E14.93083
G1 X125.605 Y88.82 E14.9755
G1 X127.21 Y88.197 E15.03276
G1 X128.648 Y87.682 E15.08357
G1 X130.321 Y87.13 E15.14216
G1 X131.901 Y86.652 E15.19707
G1 X133.401 Y86.24 E15.2488
G1 X135.032 Y85.834 E15.30471
G1 X136.554 Y85.493 E15.35658
G1 X138.115 Y85.184 E15.40951
G1 X139.335 Y84.967 E15.45072
G1 X141.906 Y84.473 E15.5378
G1 X144.322 Y83.94 E15.62009
G1 X146.801 Y83.315 E15.70512
G1 X149.262 Y82.623 E15.79015
G1 X151.598 Y81.893 E15.87155
G1 X153.64 Y81.176 E15.94353
G1 X153.904 Y81.096 E15.95271
G1 X155.034 Y80.707 E15.99245
G1 X155.75 Y80.489 E16.01735
G1 X156.472 Y80.298 E16.04219
G1 X157.025 Y80.167 E16.06109
G1 X157.753 Y80.028 E16.08574
G1 X158.491 Y79.911 E16.11059
G1 X159.17 Y79.826 E16.13335
G1 X159.836 Y79.773 E16.15557
G1 X160.807 Y79.72 E16.18792
G1 X161.429 Y79.705 E16.20861
G1 X162.146 Y79.709 E16.23246
G1 X163.351 Y79.76 E16.27257
G1 X163.812 Y79.795 E16.28795
G1 X164.759 Y79.886 E16.31959
G1 X165.224 Y79.941 E16.33517
G1 X166.039 Y80.057 E16.36255
G1 X166.569 Y80.146 E16.38042
G1 X168.384 Y80.507 E16.44197
G1 X169.544 Y80.781 E16.48162
G1 X169.978 Y80.894 E16.49653
G1 X171.149 Y81.225 E16.53701
G1 X172.79 Y81.752 E16.59433
G1 X173.185 Y81.889 E16.60824
G1 X174.953 Y82.552 E16.67104
G1 X176.107 Y83.038 E16.71269
G1 X177.369 Y83.618 E16.75888
G1 X177.762 Y83.808 E16.7734
G1 X179.018 Y84.45 E16.82032
G1 X179.426 Y84.671 E16.83575
G1 X180.82 Y85.467 E16.88914
G1 X181.296 Y85.756 E16.90766
G1 X182.839 Y86.748 E16.96867
G1 X183.206 Y86.996 E16.9834
G1 X184.623 Y87.997 E17.04111
G1 X185.654 Y88.774 E17.08405
G1 X187.043 Y89.906 E17.14364
G1 X187.4 Y90.213 E17.1593
G1 X188.759 Y91.445 E17.22031
G1 X189.307 Y91.978 E17.24574
G1 X189.85 Y92.525 E17.27137
G1 X190.673 Y93.397 E17.31126
G1 X191.272 Y94.071 E17.34125
G1 X191.764 Y94.652 E17.36657
G1 X192.452 Y95.504 E17.40299
G1 X192.926 Y96.126 E17.429
G1 X193.689 Y97.188 E17.4725
G1 X193.985 Y97.625 E17.49005
G1 X195.072 Y99.332 E17.55736
G1 X196.917 Y102.44 E17.67757
G1 X198.287 Y104.613 E17.76301
G1 X199.67 Y106.676 E17.84562
G1 X201.798 Y109.627 E17.96663
G1 X202.389 Y110.421 E17.99955
G1 X203.225 Y111.583 E18.04716
G1 X204.022 Y112.738 E18.09383
G1 X204.858 Y114.008 E18.14441
G1 X205.64 Y115.26 E18.1935
G1 X206.491 Y116.7 E18.24914
G1 X207.24 Y118.036 E18.30008
G1 X207.784 Y119.054 E18.33847
G1 X208.707 Y120.892 E18.40688
G1 X209.367 Y122.297 E18.4585
G1 X209.994 Y123.716 E18.5101
G1 X210.618 Y125.228 E18.56451
G1 X211.048 Y126.338 E18.6041
G1 X211.738 Y128.256 E18.67189
G1 X212.217 Y129.709 E18.72278
G1 X212.605 Y130.975 E18.76682
G1 X213.089 Y132.703 E18.82651
G1 X213.441 Y134.097 E18.87433
G1 X213.79 Y135.638 E18.92688
G1 X214.099 Y137.189 E18.97948
G1 X214.303 Y138.352 E19.01875
G1 X214.546 Y139.928 E19.07179
G1 X214.722 Y141.243 E19.11591
G1 X214.941 Y143.217 E19.18197
G1 X215.049 Y144.339 E19.21946
G1 X215.243 Y146.72 E19.29892
G1 X215.285 Y147.459 E19.32354
G1 X215.29 Y148.362 E19.35357
G1 X215.248 Y149 E19.37484
G1 X215.2 Y149.489 E19.39118
G1 X215.066 Y150.418 E19.4224
G1 X214.851 Y151.332 E19.45363
G1 X214.555 Y152.222 E19.48482
G1 X214.182 Y153.084 E19.51606
G1 X213.735 Y153.909 E19.54727
G1 X213.237 Y154.662 E19.5773
G1 X212.5 Y155.57 E19.61619
G1 X210.178 Y158.127 E19.73107
G1 X208.541 Y160.044 E19.81492
G1 X206.968 Y161.993 E19.89822
G1 X205.436 Y164.006 E19.98236
G1 X203.95 Y166.078 E20.06716
G1 X202.556 Y168.142 E20.15
G1 X201.196 Y170.285 E20.23442
G1 X199.903 Y172.455 E20.31844
G1 X198.667 Y174.669 E20.40277
G1 X197.486 Y176.934 E20.48773
G1 X196.392 Y179.184 E20.57094
G1 X195.346 Y181.5 E20.65547
G1 X194.382 Y183.804 E20.73853
G1 X193.453 Y186.219 E20.8246
G1 X192.62 Y188.577 E20.90777
G1 X191.85 Y190.975 E20.99154
G1 X191.142 Y193.411 E21.07592
G1 X190.492 Y195.912 E21.16186
G1 X190.102 Y197.527 E21.21712
G1 X189.841 Y198.428 E21.24832
G1 X189.502 Y199.301 E21.27947
G1 X189.103 Y200.121 E21.3098
G1 X188.628 Y200.959 E21.34184
G1 X188.094 Y201.731 E21.37306
G1 X187.518 Y202.426 E21.40308
G1 X186.497 Y203.422 E21.45052
G1 X185.674 Y204.069 E21.48534
G1 X185.279 Y204.339 E21.50126
G1 X184.583 Y204.784 E21.52873
G1 X183.867 Y205.206 E21.55637
G1 X182.048 Y206.215 E21.62556
G1 X180.151 Y207.228 E21.69709
G1 X178.962 Y207.836 E21.7415
G1 X177.882 Y208.364 E21.78149
G1 X176.689 Y208.92 E21.82526
G1 X175.366 Y209.503 E21.87335
G1 X174.207 Y209.984 E21.91509
G1 X172.473 Y210.652 E21.97689
G1 X171.018 Y211.167 E22.02823
G1 X169.942 Y211.522 E22.06591
G1 X165.753 Y212.81 E22.21168
G1 X163.356 Y213.624 E22.29587
G1 X161.014 Y214.493 E22.37896
G1 X158.643 Y215.449 E22.46399
G1 X156.326 Y216.462 E22.54809
G1 X154.055 Y217.532 E22.63159
G1 X152.519 Y218.298 E22.68868
G1 X151.544 Y218.754 E22.72448
G1 X150.619 Y219.132 E22.75771
G1 X150.074 Y219.324 E22.77693
G1 X149.135 Y219.605 E22.80953
G1 X148.439 Y219.779 E22.83339
G1 X147.615 Y219.95 E22.86138
G1 X147.164 Y220.024 E22.87658
G1 X146.627 Y220.098 E22.89461
G1 X145.849 Y220.186 E22.92066
G1 X144.899 Y220.261 E22.95235
G1 X143.785 Y220.3 E22.98943
G1 X143.3 Y220.302 E23.00556
G1 X141.772 Y220.266 E23.05639
G1 X140.906 Y220.221 E23.08523
G1 X139.47 Y220.103 E23.13316
G1 X138.222 Y219.964 E23.17492
G1 X137.127 Y219.816 E23.21167
G1 X136.166 Y219.668 E23.24401
G1 X134.81 Y219.432 E23.28979
G1 X133.711 Y219.217 E23.32704
G1 X132.664 Y218.995 E23.36264
G1 X131.338 Y218.692 E23.40788
G1 X130.627 Y218.519 E23.43221
G1 X129.163 Y218.139 E23.48252
G1 X127.15 Y217.581 E23.552
G1 X124.905 Y216.892 E23.6301
G1 X123.77 Y216.512 E23.66991
G1 X122.754 Y216.15 E23.70579
G1 X121.827 Y215.802 E23.73872
G1 X120.579 Y215.302 E23.78344
G1 X119.412 Y214.801 E23.82568
G1 X118.616 Y214.435 E23.85482
G1 X117.263 Y213.77 E23.90496
G1 X116.55 Y213.395 E23.93175
G1 X115.254 Y212.665 E23.98123
G1 X114.244 Y212.051 E24.02054
G1 X113.276 Y211.421 E24.05895
G1 X112.621 Y210.967 E24.08546
G1 X111.63 Y210.237 E24.1264
G1 X110.817 Y209.596 E24.16083
G1 X109.89 Y208.807 E24.20132
G1 X109.582 Y208.532 E24.21505
G1 X108.811 Y207.813 E24.25012
