;FLAVOR:Marlin
;TIME:4031
;Filament used: 1.12781m
;Layer height: 0.16
;MINX:142.627
;MINY:122.99
;MINZ:0.2
;MAXX:185.562
;MAXY:171.486
;MAXZ:47.84
;TARGET_MACHINE.NAME:Creality Ender-3 S1 Plus
;Generated with Cura_SteamEngine 5.7.2
M104 S200
M105
M109 S200
M82 ;absolute extrusion mode
; Ender 3 S1 Plus Start G-code
; M413 S0 ; Disable power loss recovery
G92 E0 ; Reset Extruder

; Prep surfaces before auto home for better accuracy
M140 S60
M104 S200

G28 ; Home all axes
G1 Z10.0 F3000 ; Move Z Axis up little to prevent scratching of Heat Bed
G1 X0 Y0

M190 S60
M109 S200

G1 X0.1 Y20 Z0.3 F5000.0 ; Move to start position
G1 X0.1 Y200.0 Z0.3 F1500.0 E15 ; Draw the first line
G1 X0.4 Y200.0 Z0.3 F5000.0 ; Move to side a little
G1 X0.4 Y20 Z0.3 F1500.0 E30 ; Draw the second line
G92 E0 ; Reset Extruder
G1 Z2.0 F3000 ; Move Z Axis up little to prevent scratching of Heat Bed
G1 X5 Y20 Z0.3 F5000.0 ; Move over to prevent blob squish

G92 E0
G92 E0
G1 F2400 E-0.8
;LAYER_COUNT:355
;LAYER:0
M107
M204 S2000
G1 F300 Z0.4
G0 F7500 X146.268 Y128.184 Z0.4
M204 S500
;TYPE:SKIRT
G1 F300 Z0.2
G1 F2400 E0
G1 F1500 X147.152 Y127.236 E0.04311
G1 X147.668 Y126.711 E0.0676
G1 X148.355 Y126.071 E0.09882
G1 X149.152 Y125.452 E0.13239
G1 X149.971 Y124.925 E0.16478
G1 X150.834 Y124.473 E0.19718
G1 X151.726 Y124.102 E0.22931
G1 X152.42 Y123.874 E0.25361
G1 X153.389 Y123.592 E0.28718
G1 X154.274 Y123.353 E0.31767
G1 X155.226 Y123.147 E0.35006
G1 X156.192 Y123.026 E0.38244
G1 X157.165 Y122.99 E0.41483
G1 X158.067 Y123.035 E0.44487
G1 X159.096 Y123.178 E0.47942
G1 X159.845 Y123.344 E0.50494
G1 X161.169 Y123.698 E0.55052
G1 X161.875 Y123.909 E0.57503
G1 X162.76 Y124.219 E0.60622
G1 X163.68 Y124.636 E0.63981
G1 X164.527 Y125.116 E0.67219
G1 X165.34 Y125.678 E0.70506
G1 X166.346 Y126.54 E0.74913
G1 X167.15 Y127.32 E0.78638
G1 X169.018 Y129.078 E0.8717
G1 X170.905 Y130.756 E0.95569
G1 X172.828 Y132.372 E1.03923
G1 X174.825 Y133.956 E1.12401
G1 X176.697 Y135.359 E1.20182
G1 X177.628 Y136.04 E1.24019
G1 X178.381 Y136.646 E1.27233
G1 X178.943 Y137.175 E1.298
G1 X179.464 Y137.704 E1.3227
G1 X181.17 Y139.496 E1.40499
G1 X181.694 Y140.062 E1.43065
G1 X182.322 Y140.807 E1.46305
G1 X182.881 Y141.604 E1.49543
G1 X183.368 Y142.447 E1.52781
G1 X183.765 Y143.299 E1.55908
G1 X184.11 Y144.248 E1.59266
G1 X184.296 Y144.845 E1.61346
G1 X184.928 Y146.991 E1.68787
G1 X185.172 Y147.868 E1.71814
G1 X185.386 Y148.817 E1.7505
G1 X185.518 Y149.783 E1.78293
G1 X185.562 Y150.756 E1.81532
G1 X185.52 Y151.728 E1.84768
G1 X185.392 Y152.691 E1.87999
G1 X185.206 Y153.545 E1.90906
G1 X185.064 Y154.088 E1.92773
G1 X184.402 Y156.459 E2.00961
G1 X184.152 Y157.302 E2.03885
G1 X183.832 Y158.221 E2.07122
G1 X183.431 Y159.109 E2.10362
G1 X182.954 Y159.958 E2.13601
G1 X182.392 Y160.774 E2.16897
G1 X181.507 Y161.809 E2.21426
G1 X180.767 Y162.569 E2.24954
G1 X179.361 Y163.964 E2.31542
G1 X178.796 Y164.511 E2.34157
G1 X178.093 Y165.133 E2.37279
G1 X177.28 Y165.732 E2.40638
G1 X176.478 Y166.219 E2.43759
G1 X175.557 Y166.671 E2.47171
G1 X174.294 Y167.132 E2.51643
G1 X173.444 Y167.381 E2.54589
G1 X171.383 Y167.954 E2.61704
G1 X169.627 Y168.414 E2.67741
G1 X168.695 Y168.646 E2.70936
G1 X166.235 Y169.325 E2.79424
G1 X163.809 Y170.073 E2.87867
G1 X162.424 Y170.531 E2.92719
G1 X161.283 Y170.879 E2.96687
G1 X160.402 Y171.12 E2.99725
G1 X159.451 Y171.327 E3.02962
G1 X158.485 Y171.449 E3.062
G1 X157.513 Y171.486 E3.09436
G1 X156.611 Y171.442 E3.12439
G1 X155.572 Y171.299 E3.15927
G1 X154.63 Y171.08 E3.19144
G1 X153.637 Y170.794 E3.22581
G1 X153.027 Y170.602 E3.24708
G1 X152.146 Y170.279 E3.27829
G1 X151.234 Y169.85 E3.31181
G1 X150.393 Y169.359 E3.3442
G1 X149.622 Y168.812 E3.37564
G1 X148.627 Y167.938 E3.41969
G1 X147.887 Y167.196 E3.45455
G1 X147.331 Y166.609 E3.48144
G1 X146.697 Y165.872 E3.51377
G1 X146.128 Y165.082 E3.54615
G1 X145.665 Y164.306 E3.57621
G1 X145.211 Y163.36 E3.61111
G1 X144.843 Y162.36 E3.64655
G1 X144.567 Y161.466 E3.67767
G1 X143.929 Y159.161 E3.75722
G1 X143.199 Y156.608 E3.84553
G1 X142.984 Y155.659 E3.8779
G1 X142.853 Y154.698 E3.91015
G1 X142.807 Y153.884 E3.93727
G1 X142.79 Y152.885 E3.9705
G1 X142.711 Y150.322 E4.05579
G1 X142.627 Y148.666 E4.11094
G1 X142.639 Y147.411 E4.15268
G1 X142.714 Y146.302 E4.18965
G1 X142.851 Y143.729 E4.27535
G1 X142.915 Y141.186 E4.35996
G1 X142.907 Y138.72 E4.44198
G1 X142.885 Y137.365 E4.48705
G1 X142.916 Y136.391 E4.51946
G1 X143.033 Y135.417 E4.55209
G1 X143.277 Y134.304 E4.58999
G1 X143.604 Y133.138 E4.63027
G1 X143.833 Y132.394 E4.65616
G1 X144.162 Y131.48 E4.68847
G1 X144.539 Y130.659 E4.71852
G1 X145.06 Y129.751 E4.75333
G1 X145.62 Y128.952 E4.78579
G1 X146.268 Y128.184 E4.81921
M204 S2000
G0 F7500 X146.561 Y128.457
M204 S500
G1 F1500 X147.445 Y127.509 E4.86232
G1 X147.941 Y127.004 E4.88586
G1 X148.628 Y126.364 E4.91709
G1 X149.369 Y125.788 E4.94831
G1 X150.157 Y125.279 E4.97951
G1 X150.988 Y124.842 E5.01074
G1 X151.851 Y124.482 E5.04184
G1 X152.532 Y124.258 E5.06568
G1 X153.493 Y123.978 E5.09897
G1 X154.359 Y123.744 E5.12881
G1 X155.276 Y123.544 E5.16003
G1 X156.207 Y123.426 E5.19124
G1 X157.145 Y123.39 E5.22246
G1 X158.047 Y123.435 E5.2525
G1 X159.009 Y123.569 E5.2848
G1 X159.758 Y123.735 E5.31032
G1 X161.054 Y124.081 E5.35493
G1 X161.743 Y124.287 E5.37885
G1 X162.628 Y124.597 E5.41004
G1 X163.483 Y124.984 E5.44126
G1 X164.3 Y125.445 E5.47246
G1 X165.08 Y125.982 E5.50395
G1 X166.067 Y126.827 E5.54717
G1 X166.871 Y127.607 E5.58443
G1 X168.752 Y129.377 E5.67033
G1 X170.639 Y131.055 E5.75432
G1 X172.579 Y132.685 E5.8386
G1 X174.585 Y134.276 E5.92375
G1 X176.461 Y135.682 E6.00173
G1 X177.378 Y136.352 E6.0395
G1 X178.107 Y136.937 E6.07059
G1 X178.658 Y137.456 E6.09577
G1 X179.174 Y137.98 E6.12023
G1 X180.877 Y139.768 E6.20235
G1 X181.389 Y140.32 E6.22739
G1 X181.995 Y141.037 E6.25862
G1 X182.535 Y141.804 E6.28982
G1 X183.005 Y142.616 E6.32102
G1 X183.402 Y143.468 E6.35229
G1 X183.728 Y144.367 E6.38409
G1 X183.912 Y144.958 E6.40468
G1 X184.543 Y147.098 E6.47889
G1 X184.782 Y147.957 E6.50854
G1 X184.99 Y148.871 E6.53972
G1 X185.118 Y149.802 E6.57098
G1 X185.162 Y150.739 E6.60217
G1 X185.123 Y151.676 E6.63337
G1 X185.001 Y152.606 E6.66456
G1 X184.819 Y153.444 E6.69308
G1 X184.679 Y153.98 E6.71151
G1 X184.018 Y156.346 E6.79322
G1 X183.774 Y157.171 E6.82183
G1 X183.467 Y158.057 E6.85302
G1 X183.082 Y158.914 E6.88427
G1 X182.624 Y159.732 E6.91545
G1 X182.088 Y160.514 E6.94698
G1 X181.22 Y161.53 E6.99143
G1 X180.485 Y162.285 E7.02647
G1 X179.083 Y163.677 E7.09218
G1 X178.531 Y164.211 E7.11773
G1 X177.828 Y164.833 E7.14895
G1 X177.072 Y165.39 E7.18018
G1 X176.301 Y165.86 E7.21021
G1 X175.42 Y166.295 E7.24289
G1 X174.157 Y166.756 E7.28761
G1 X173.337 Y166.996 E7.31603
G1 X171.282 Y167.567 E7.38697
G1 X169.531 Y168.026 E7.44717
G1 X168.589 Y168.26 E7.47946
G1 X166.129 Y168.939 E7.56434
G1 X163.683 Y169.693 E7.64947
G1 X162.307 Y170.148 E7.69767
G1 X161.177 Y170.493 E7.73697
G1 X160.316 Y170.729 E7.76666
G1 X159.4 Y170.93 E7.79785
G1 X158.469 Y171.049 E7.82907
G1 X157.532 Y171.086 E7.86026
G1 X156.63 Y171.042 E7.89029
G1 X155.663 Y170.909 E7.92276
G1 X154.721 Y170.69 E7.95493
G1 X153.757 Y170.413 E7.98829
G1 X153.165 Y170.226 E8.00894
G1 X152.284 Y169.903 E8.04014
G1 X151.435 Y169.504 E8.07135
G1 X150.624 Y169.032 E8.10256
G1 X149.886 Y168.511 E8.1326
G1 X148.891 Y167.637 E8.17665
G1 X148.177 Y166.921 E8.21028
G1 X147.634 Y166.348 E8.23654
G1 X147.021 Y165.638 E8.26774
G1 X146.472 Y164.877 E8.29895
G1 X146.009 Y164.101 E8.329
G1 X145.586 Y163.222 E8.36145
G1 X145.225 Y162.242 E8.39618
G1 X144.953 Y161.359 E8.42691
G1 X144.315 Y159.054 E8.50646
G1 X143.589 Y156.519 E8.59416
G1 X143.38 Y155.604 E8.62538
G1 X143.252 Y154.676 E8.65654
G1 X143.207 Y153.877 E8.68315
G1 X143.19 Y152.878 E8.71639
G1 X143.11 Y150.31 E8.80184
G1 X143.027 Y148.67 E8.85646
G1 X143.038 Y147.438 E8.89743
G1 X143.113 Y146.329 E8.9344
G1 X143.251 Y143.739 E9.02067
G1 X143.315 Y141.196 E9.10528
G1 X143.307 Y138.719 E9.18766
G1 X143.285 Y137.377 E9.2323
G1 X143.313 Y136.438 E9.26355
G1 X143.424 Y135.503 E9.29487
G1 X143.668 Y134.39 E9.33276
G1 X143.986 Y133.255 E9.37197
G1 X144.209 Y132.529 E9.39723
G1 X144.526 Y131.647 E9.4284
G1 X144.903 Y130.826 E9.45845
G1 X145.388 Y129.98 E9.49088
G1 X145.926 Y129.21 E9.52212
G1 X146.561 Y128.457 E9.55489
M204 S2000
G0 F7500 X146.854 Y128.73
M204 S500
G1 F1500 X147.731 Y127.789 E9.59767
G1 X148.214 Y127.296 E9.62062
G1 X148.874 Y126.679 E9.65067
G1 X149.586 Y126.124 E9.6807
G1 X150.344 Y125.633 E9.71074
G1 X151.143 Y125.211 E9.74079
G1 X151.976 Y124.862 E9.77083
G1 X152.644 Y124.642 E9.79422
G1 X153.597 Y124.364 E9.82724
G1 X154.445 Y124.135 E9.85646
G1 X155.327 Y123.941 E9.88649
G1 X156.223 Y123.826 E9.91654
G1 X157.125 Y123.79 E9.94656
G1 X158.027 Y123.835 E9.9766
G1 X158.922 Y123.959 E10.00665
G1 X159.655 Y124.122 E10.03163
G1 X160.939 Y124.464 E10.07582
G1 X161.611 Y124.665 E10.09915
G1 X162.464 Y124.962 E10.12919
G1 X163.287 Y125.333 E10.15922
G1 X164.074 Y125.775 E10.18924
G1 X164.82 Y126.286 E10.21932
G1 X165.788 Y127.114 E10.26168
G1 X166.592 Y127.894 E10.29894
G1 X168.486 Y129.676 E10.38543
G1 X170.373 Y131.354 E10.46942
G1 X172.33 Y132.998 E10.55443
G1 X174.345 Y134.596 E10.63997
G1 X176.225 Y136.005 E10.71811
G1 X177.128 Y136.664 E10.75529
G1 X177.833 Y137.228 E10.78532
G1 X178.373 Y137.736 E10.80998
G1 X178.884 Y138.256 E10.83423
G1 X180.584 Y140.04 E10.91619
G1 X181.084 Y140.579 E10.94064
G1 X181.668 Y141.268 E10.97068
G1 X182.189 Y142.005 E11.0007
G1 X182.643 Y142.786 E11.03075
G1 X183.026 Y143.604 E11.06079
G1 X183.346 Y144.486 E11.09199
G1 X183.528 Y145.071 E11.11237
G1 X184.158 Y147.205 E11.18638
G1 X184.392 Y148.046 E11.21541
G1 X184.594 Y148.926 E11.24544
G1 X184.718 Y149.821 E11.27549
G1 X184.762 Y150.723 E11.30553
G1 X184.726 Y151.625 E11.33555
G1 X184.61 Y152.521 E11.3656
G1 X184.432 Y153.343 E11.39358
G1 X184.294 Y153.872 E11.41176
G1 X183.634 Y156.233 E11.4933
G1 X183.396 Y157.041 E11.52131
G1 X183.102 Y157.894 E11.55132
G1 X182.733 Y158.719 E11.58138
G1 X182.293 Y159.507 E11.6114
G1 X181.784 Y160.254 E11.64147
G1 X180.933 Y161.251 E11.68506
G1 X180.203 Y162.001 E11.71987
G1 X178.805 Y163.39 E11.78542
G1 X178.266 Y163.912 E11.81038
G1 X177.59 Y164.511 E11.84042
G1 X176.864 Y165.048 E11.87045
G1 X176.093 Y165.518 E11.90048
G1 X175.283 Y165.919 E11.93055
G1 X174.044 Y166.372 E11.97442
G1 X173.23 Y166.611 E12.00264
G1 X171.18 Y167.18 E12.0734
G1 X169.435 Y167.638 E12.13341
G1 X168.482 Y167.874 E12.16606
G1 X166.022 Y168.554 E12.25095
G1 X163.558 Y169.313 E12.3367
G1 X162.19 Y169.765 E12.38462
G1 X161.071 Y170.107 E12.42354
G1 X160.23 Y170.338 E12.45255
G1 X159.349 Y170.533 E12.48256
G1 X158.453 Y170.649 E12.51261
G1 X157.551 Y170.686 E12.54263
G1 X156.649 Y170.642 E12.57267
G1 X155.754 Y170.519 E12.60272
G1 X154.812 Y170.3 E12.63488
G1 X153.877 Y170.031 E12.66724
G1 X153.302 Y169.85 E12.68729
G1 X152.454 Y169.541 E12.71731
G1 X151.636 Y169.158 E12.74735
G1 X150.855 Y168.705 E12.77738
G1 X150.117 Y168.184 E12.80743
G1 X149.174 Y167.355 E12.84919
G1 X148.467 Y166.646 E12.88249
G1 X147.936 Y166.086 E12.90816
G1 X147.345 Y165.404 E12.93817
G1 X146.816 Y164.672 E12.96821
G1 X146.353 Y163.896 E12.99827
G1 X145.961 Y163.083 E13.02829
G1 X145.607 Y162.124 E13.06229
G1 X145.339 Y161.252 E13.09263
G1 X144.701 Y158.947 E13.17218
G1 X143.979 Y156.429 E13.2593
G1 X143.776 Y155.549 E13.28934
G1 X143.651 Y154.654 E13.31939
G1 X143.607 Y153.87 E13.34551
G1 X143.59 Y152.871 E13.37874
G1 X143.509 Y150.297 E13.4644
G1 X143.427 Y148.673 E13.51848
G1 X143.437 Y147.465 E13.55866
G1 X143.512 Y146.356 E13.59563
G1 X143.651 Y143.749 E13.68246
G1 X143.715 Y141.206 E13.76707
G1 X143.707 Y138.718 E13.84982
G1 X143.685 Y137.388 E13.89406
G1 X143.71 Y136.485 E13.92411
G1 X143.815 Y135.588 E13.95415
G1 X144.053 Y134.498 E13.99125
G1 X144.368 Y133.373 E14.03011
G1 X144.586 Y132.664 E14.05478
G1 X144.89 Y131.814 E14.08481
G1 X145.267 Y130.993 E14.11485
G1 X145.716 Y130.209 E14.1449
G1 X146.232 Y129.468 E14.17494
G1 X146.854 Y128.73 E14.20704
M204 S2000
G1 F2400 E13.40704
G1 F300 Z0.4
G0 F7500 X154.506 Y135.76 Z0.4
M204 S500
G1 F300 Z0.2
G1 F2400 E14.20704
G1 F1500 X155.589 Y134.616 E14.25943
G1 X157.091 Y134.192 E14.31134
G1 X158.593 Y134.616 E14.36325
G1 X159.676 Y135.76 E14.41565
G1 X160.097 Y137.199 E14.46551
G1 X159.676 Y138.703 E14.51746
G1 X158.593 Y139.786 E14.5684
G1 X157.089 Y140.207 E14.62035
G1 X155.654 Y139.787 E14.67008
G1 X154.505 Y138.638 E14.72412
G1 X154.083 Y137.201 E14.77394
G1 X154.506 Y135.76 E14.82389
M204 S2000
G0 F7500 X154.863 Y135.966
M204 S500
G1 F1500 X155.804 Y134.971 E14.86944
G1 X157.091 Y134.608 E14.91391
G1 X158.378 Y134.971 E14.95839
G1 X159.32 Y135.966 E15.00396
G1 X159.681 Y137.202 E15.04679
G1 X159.319 Y138.494 E15.09141
G1 X158.384 Y139.429 E15.13539
G1 X157.092 Y139.791 E15.18002
G1 X155.865 Y139.432 E15.22254
G1 X154.86 Y138.427 E15.26981
G1 X154.501 Y137.201 E15.3123
G1 X154.863 Y135.966 E15.35511
M204 S2000
G0 F7500 X155.22 Y136.17
M204 S500
G1 F1500 X156.018 Y135.326 E15.39374
G1 X157.091 Y135.024 E15.43082
G1 X158.164 Y135.326 E15.46789
G1 X158.963 Y136.17 E15.50655
G1 X159.265 Y137.205 E15.5424
G1 X158.962 Y138.285 E15.57971
G1 X158.175 Y139.072 E15.61673
G1 X157.095 Y139.375 E15.65404
G1 X156.075 Y139.076 E15.68939
G1 X155.215 Y138.216 E15.72984
G1 X154.917 Y137.201 E15.76503
G1 X155.22 Y136.17 E15.80077
M204 S2000
G0 F7500 X155.575 Y136.377
M204 S500
G1 F1500 X156.234 Y135.681 E15.83265
G1 X157.091 Y135.439 E15.86227
G1 X157.948 Y135.681 E15.89189
G1 X158.606 Y136.375 E15.92369
G1 X158.849 Y137.208 E15.95255
G1 X158.606 Y138.075 E15.9825
G1 X157.965 Y138.716 E16.01265
G1 X157.098 Y138.959 E16.0426
G1 X156.286 Y138.721 E16.07074
G1 X155.569 Y138.004 E16.10447
G1 X155.334 Y137.201 E16.1323
G1 X155.575 Y136.377 E16.16085
M204 S2000
G0 F7500 X155.932 Y136.581
M204 S500
G1 F1500 X156.448 Y136.036 E16.18581
G1 X157.091 Y135.855 E16.20803
G1 X157.734 Y136.036 E16.23025
G1 X158.248 Y136.58 E16.25514
G1 X158.433 Y137.211 E16.27701
G1 X158.25 Y137.865 E16.2996
G1 X157.755 Y138.36 E16.32288
G1 X157.101 Y138.543 E16.34547
G1 X156.497 Y138.366 E16.3664
G1 X155.925 Y137.794 E16.39331
G1 X155.751 Y137.2 E16.4139
G1 X155.932 Y136.581 E16.43535
M204 S2000
G0 F7500 X156.289 Y136.787
M204 S500
G1 F1500 X156.663 Y136.391 E16.45346
G1 X157.091 Y136.27 E16.46826
G1 X157.519 Y136.391 E16.48305
G1 X157.892 Y136.785 E16.5011
G1 X158.016 Y137.212 E16.51588
G1 X157.892 Y137.657 E16.53125
G1 X157.547 Y138.002 E16.54748
G1 X157.102 Y138.126 E16.56284
G1 X156.708 Y138.011 E16.57649
G1 X156.279 Y137.582 E16.59667
G1 X156.168 Y137.201 E16.60987
G1 X156.289 Y136.787 E16.62422
M204 S2000
G0 F7500 X156.646 Y136.991
M204 S500
G1 F1500 X156.877 Y136.747 E16.63539
G1 X157.091 Y136.686 E16.64279
G1 X157.305 Y136.747 E16.65019
G1 X157.535 Y136.989 E16.6613
G1 X157.6 Y137.214 E16.66909
G1 X157.534 Y137.451 E16.67727
G1 X157.341 Y137.644 E16.68635
G1 X157.105 Y137.71 E16.6945
G1 X156.916 Y137.655 E16.70105
G1 X156.636 Y137.375 E16.71422
G1 X156.584 Y137.2 E16.72029
G1 X156.646 Y136.991 E16.72754
M204 S2000
G0 F7500 X157.013 Y137.186
M204 S500
G1 F1500 X157.091 Y137.103 E16.73133
G1 X157.178 Y137.195 E16.73554
G1 X157.184 Y137.217 E16.7363
G1 X157.178 Y137.241 E16.73712
G1 X157.131 Y137.288 E16.73933
G1 X157.118 Y137.291 E16.73977
G1 X157.013 Y137.186 E16.74471
M204 S2000
G1 F2400 E15.94471
G1 F300 Z0.4
G0 F7500 X155.298 Y141.159 Z0.4
M204 S500
G1 F300 Z0.2
G1 F2400 E16.74471
G1 F1500 X155.491 Y141.362 E16.75403
G1 X155.562 Y141.609 E16.76258
G1 X155.49 Y141.87 E16.77158
G1 X155.3 Y142.06 E16.78052
G1 X155.065 Y142.125 E16.78863
G1 X155.034 Y142.146 E16.78987
G1 X154.997 Y142.12 E16.79138
G1 X154.793 Y142.06 E16.79845
G1 X154.588 Y141.855 E16.80809
G1 X154.515 Y141.607 E16.81669
G1 X154.585 Y141.363 E16.82514
G1 X154.78 Y141.159 E16.83452
G1 X155.039 Y141.086 E16.84347
G1 X155.298 Y141.159 E16.85242
M204 S2000
G0 F7500 X155.085 Y141.515
M204 S500
G1 F1500 X155.134 Y141.567 E16.8548
G1 X155.147 Y141.612 E16.85636
G1 X155.133 Y141.661 E16.85805
G1 X155.091 Y141.703 E16.86003
G1 X155.043 Y141.716 E16.86168
